X: 29
T: Malvern Walk
T: for dance Sweet Cecily
C: Elvyn Blomfield
M:4/4
L:1/8
Z:Alf Warnock - alf0@rogers.com
K:G
|"G"BDEF G2B2|"D7"A2c2 "Em"BGE2|"G"DG^AB d2B2|"Am"e2c2 "D7"A4|
"Am"A2e2 "G"dBG^A|"Em"B2G2 "C"E2"Cm"^D2|"G"DGBc "D7"dcAF|"G"^A2B2 G4:|
"G"B4 "Edim"^A4| "G"B2dc B2G2|"C"e2G2 Gce2|"D7"d4 A2^A2|
"G"B4 "Edim"^A4| "Bm"Bdfa "Em"g2e2|"D7"d4 B^AA2|"G"G8:|
